img/svg/16/device/palm.svg

<svg xmlns="http://www.w3.org/2000/svg" viewBox="0 0 16 16" enable-background="new 0 0 16 16"><path d="M12.958 5.509c-.038-1.814-.038-1.704-.399-2.477-.36-.771-.972-1.398-1.741-1.763l-.565-.269h-7.249l-.004.004v13.996h2v-3.996l.004-.004h2.306c1.225 0 2.405-.065 2.688-.125 1.441-.306 2.596-1.626 2.885-3.093.072-.365.098-1.177.075-2.273zm-1.937.574c-.027 1.197-.059 1.446-.218 1.716-.239.406-.929 1.099-1.386 1.205l-4.417-.004v-6l2.417-.006 1-.006c1.567-.002 1.723.19 2.116.584.434.434.524.891.488 2.511z" fill="#ccc"/></svg>

<svg xmlns="http://www.w3.org/2000/svg" viewBox="0 0 16 16"><path fill="#ccc" d="M12.958 5.509c-.038-1.814-.038-1.704-.399-2.477a3.659 3.659 0 0 0-1.741-1.763L10.253 1H3.004L3 1.004V15h2v-3.996L5.004 11H7.31c1.225 0 2.405-.065 2.688-.125 1.441-.306 2.596-1.626 2.885-3.093.072-.365.098-1.177.075-2.273zm-1.937.574c-.027 1.197-.059 1.446-.218 1.716-.239.406-.929 1.099-1.386 1.205L5 9V3l2.417-.006 1-.006c1.567-.002 1.723.19 2.116.584.434.434.524.891.488 2.511z"/></svg>
